flaticon/interaction/browser-3.svg

<svg xmlns="http://www.w3.org/2000/svg" width="32" height="32" viewBox="0 0 24 24">
    <path d="M 20.871094 15.773438 L 18.632812 18.988281 L 17.054688 17.691406 C 16.882812 17.550781 16.628906 17.578125 16.492188 17.746094 C 16.351562 17.917969 16.375 18.167969 16.546875 18.308594 L 18.460938 19.878906 C 18.53125 19.941406 18.621094 19.972656 18.714844 19.972656 C 18.730469 19.972656 18.75 19.972656 18.769531 19.96875 C 18.878906 19.953125 18.980469 19.890625 19.042969 19.800781 L 21.527344 16.230469 C 21.65625 16.046875 21.609375 15.796875 21.429688 15.671875 C 21.246094 15.542969 20.996094 15.589844 20.871094 15.773438 Z M 20.871094 15.773438"/>
    <path d="M 20.800781 13.203125 L 20.800781 1.199219 C 20.800781 0.980469 20.621094 0.800781 20.398438 0.800781 L 0.398438 0.800781 C 0.179688 0.800781 0 0.980469 0 1.199219 L 0 20.800781 C 0 21.019531 0.179688 21.199219 0.398438 21.199219 L 14.710938 21.199219 C 15.664062 22.414062 17.140625 23.199219 18.800781 23.199219 C 21.667969 23.199219 24 20.867188 24 18 C 24 15.839844 22.675781 13.988281 20.800781 13.203125 Z M 0.800781 1.601562 L 20 1.601562 L 20 6.398438 L 0.800781 6.398438 Z M 14.191406 20.398438 L 0.800781 20.398438 L 0.800781 7.199219 L 20 7.199219 L 20 12.941406 C 19.992188 12.941406 19.984375 12.941406 19.972656 12.9375 C 19.808594 12.902344 19.644531 12.871094 19.472656 12.847656 C 19.441406 12.84375 19.414062 12.839844 19.382812 12.835938 C 19.191406 12.8125 18.996094 12.800781 18.800781 12.800781 C 15.933594 12.800781 13.601562 15.132812 13.601562 18 C 13.601562 18.199219 13.613281 18.390625 13.636719 18.585938 C 13.640625 18.644531 13.652344 18.699219 13.660156 18.757812 C 13.679688 18.894531 13.703125 19.027344 13.734375 19.160156 C 13.75 19.222656 13.765625 19.285156 13.78125 19.347656 C 13.820312 19.480469 13.859375 19.609375 13.90625 19.738281 C 13.921875 19.789062 13.941406 19.84375 13.960938 19.894531 C 14.023438 20.050781 14.09375 20.203125 14.167969 20.351562 C 14.175781 20.367188 14.183594 20.382812 14.191406 20.398438 Z M 18.800781 22.398438 C 17.324219 22.398438 16.015625 21.664062 15.21875 20.546875 C 15.167969 20.472656 15.117188 20.398438 15.070312 20.324219 C 15.050781 20.292969 15.03125 20.257812 15.007812 20.222656 C 14.96875 20.152344 14.929688 20.082031 14.890625 20.007812 C 14.867188 19.964844 14.84375 19.917969 14.824219 19.871094 C 14.792969 19.804688 14.757812 19.738281 14.730469 19.671875 C 14.6875 19.5625 14.644531 19.449219 14.609375 19.335938 C 14.59375 19.292969 14.582031 19.246094 14.570312 19.199219 C 14.546875 19.117188 14.523438 19.03125 14.503906 18.949219 C 14.496094 18.898438 14.484375 18.851562 14.476562 18.804688 C 14.460938 18.714844 14.445312 18.625 14.4375 18.535156 C 14.429688 18.492188 14.425781 18.449219 14.421875 18.40625 C 14.410156 18.269531 14.398438 18.136719 14.398438 18 C 14.398438 15.574219 16.375 13.601562 18.800781 13.601562 C 18.9375 13.601562 19.070312 13.609375 19.203125 13.621094 C 19.273438 13.628906 19.34375 13.636719 19.414062 13.648438 C 19.46875 13.65625 19.527344 13.664062 19.582031 13.671875 C 19.675781 13.691406 19.769531 13.710938 19.859375 13.734375 C 19.886719 13.742188 19.914062 13.746094 19.9375 13.753906 C 20.042969 13.78125 20.148438 13.816406 20.253906 13.851562 C 21.964844 14.453125 23.199219 16.082031 23.199219 18 C 23.199219 20.425781 21.226562 22.398438 18.800781 22.398438 Z M 18.800781 22.398438"/>
    <path d="M3.199219 2.398438C2.316406 2.398438 1.601562 3.117188 1.601562 4 1.601562 4.882812 2.316406 5.601562 3.199219 5.601562 4.082031 5.601562 4.800781 4.882812 4.800781 4 4.800781 3.117188 4.082031 2.398438 3.199219 2.398438zM3.199219 4.800781C2.757812 4.800781 2.398438 4.441406 2.398438 4 2.398438 3.558594 2.757812 3.199219 3.199219 3.199219 3.640625 3.199219 4 3.558594 4 4 4 4.441406 3.640625 4.800781 3.199219 4.800781zM6.800781 2.398438C5.917969 2.398438 5.199219 3.117188 5.199219 4 5.199219 4.882812 5.917969 5.601562 6.800781 5.601562 7.683594 5.601562 8.398438 4.882812 8.398438 4 8.398438 3.117188 7.683594 2.398438 6.800781 2.398438zM6.800781 4.800781C6.359375 4.800781 6 4.441406 6 4 6 3.558594 6.359375 3.199219 6.800781 3.199219 7.242188 3.199219 7.601562 3.558594 7.601562 4 7.601562 4.441406 7.242188 4.800781 6.800781 4.800781zM10.398438 2.398438C9.519531 2.398438 8.800781 3.117188 8.800781 4 8.800781 4.882812 9.519531 5.601562 10.398438 5.601562 11.28125 5.601562 12 4.882812 12 4 12 3.117188 11.28125 2.398438 10.398438 2.398438zM10.398438 4.800781C9.957031 4.800781 9.601562 4.441406 9.601562 4 9.601562 3.558594 9.957031 3.199219 10.398438 3.199219 10.839844 3.199219 11.199219 3.558594 11.199219 4 11.199219 4.441406 10.839844 4.800781 10.398438 4.800781zM10.398438 4.800781"/>
</svg>

<svg xmlns="http://www.w3.org/2000/svg" width="32" height="32" viewBox="0 0 24 24">
    <path d="M20.871 15.773l-2.238 3.215-1.578-1.297a.401.401 0 0 0-.563.055.398.398 0 0 0 .055.563l1.914 1.57c.07.062.16.094.254.094.015 0 .035 0 .055-.004a.408.408 0 0 0 .273-.168l2.484-3.57a.4.4 0 1 0-.656-.458zm0 0"/>
    <path d="M20.8 13.203V1.2a.401.401 0 0 0-.402-.398h-20A.4.4 0 0 0 0 1.199v19.602a.4.4 0 0 0 .398.398h14.313a5.19 5.19 0 0 0 4.09 2C21.668 23.2 24 20.867 24 18a5.206 5.206 0 0 0-3.2-4.797zM.8 1.602H20v4.796H.8zm13.391 18.796H.801V7.2H20v5.742c-.008 0-.016 0-.027-.004a6.663 6.663 0 0 0-.5-.09l-.09-.011a4.8 4.8 0 0 0-.582-.035A5.205 5.205 0 0 0 13.6 18c0 .2.012.39.036.586.004.059.015.113.023.172.02.137.043.27.074.402l.047.188c.04.132.078.261.125.39.016.051.035.106.055.157.062.156.133.308.207.457l.023.046zm4.61 2a4.398 4.398 0 0 1-3.582-1.851c-.051-.074-.102-.149-.149-.223-.02-.031-.039-.066-.062-.101-.04-.07-.078-.141-.117-.215a1.476 1.476 0 0 1-.067-.137c-.031-.066-.066-.133-.094-.2a4.902 4.902 0 0 1-.12-.335 5.91 5.91 0 0 1-.105-.387c-.009-.05-.02-.097-.028-.144-.016-.09-.032-.18-.04-.27a1.45 1.45 0 0 1-.015-.129c-.012-.136-.024-.27-.024-.406a4.406 4.406 0 0 1 4.805-4.379c.07.008.14.016.211.027l.168.024c.094.02.188.039.277.062.028.008.055.012.078.02A4.404 4.404 0 0 1 23.2 18a4.403 4.403 0 0 1-4.398 4.398zm0 0"/>
    <path d="M3.2 2.398A1.6 1.6 0 0 0 1.601 4a1.6 1.6 0 0 0 1.597 1.602c.883 0 1.602-.72 1.602-1.602 0-.883-.719-1.602-1.602-1.602zm0 2.403a.802.802 0 0 1 0-1.602.802.802 0 0 1 0 1.602zm0 0M6.8 2.398c-.882 0-1.6.72-1.6 1.602 0 .883.718 1.602 1.6 1.602A1.6 1.6 0 0 0 8.399 4a1.6 1.6 0 0 0-1.597-1.602zm0 2.403a.802.802 0 0 1 0-1.602.802.802 0 0 1 0 1.602zm0 0M10.398 2.398a1.603 1.603 0 0 0 0 3.203C11.281 5.602 12 4.884 12 4s-.719-1.602-1.602-1.602zm0 2.403A.799.799 0 0 1 9.602 4a.799.799 0 1 1 1.597 0c0 .441-.36.8-.8.8zm0 0"/>
</svg>
